assets/icons/icon_ferrum_v2.svg

<svg width="30" height="30" viewBox="0 0 30 30" fill="none" xmlns="http://www.w3.org/2000/svg">
<path d="M15.9865 14.8977L16.1402 14.5659C16.3449 14.046 16.678 13.5861 17.1087 13.2286C17.6601 12.829 18.3281 12.621 19.0099 12.6365C19.6401 12.6268 20.2573 12.8162 20.7727 13.1776C21.2648 13.5223 21.6259 14.0222 21.7976 14.5965L21.8847 14.8977H15.9865ZM23.75 16.0869C23.7804 15.4222 23.6768 14.7582 23.4453 14.134C23.2139 13.5098 22.8592 12.9382 22.4023 12.4528C21.9431 11.9965 21.3944 11.6396 20.7904 11.4042C20.1864 11.1688 19.5401 11.0601 18.892 11.0849C18.2656 11.0685 17.6426 11.1816 17.0622 11.417C16.4819 11.6524 15.9568 12.0051 15.5201 12.4528C15.0757 12.9103 14.7275 13.4516 14.4961 14.045C14.2646 14.6384 14.1546 15.2719 14.1724 15.9083C14.1558 16.5315 14.2667 17.1515 14.4984 17.7307C14.7301 18.3098 15.0777 18.836 15.5201 19.277C15.982 19.7267 16.531 20.0781 17.1336 20.3097C17.7362 20.5414 18.3798 20.6485 19.0253 20.6245C19.8548 20.6373 20.6765 20.4628 21.4286 20.1141C22.0306 19.8089 22.5561 19.3728 22.966 18.838L21.3415 18.0826C20.6967 18.6647 19.8544 18.982 18.9843 18.9707C18.2717 18.996 17.5731 18.7701 17.0113 18.3327C16.4773 17.8897 16.1298 17.263 16.0377 16.5769L15.9865 16.2911H23.7449L23.75 16.0869Z" fill="white"/>
<path d="M12.2046 12.8458H8.22291V10.0437H12.2046V8.12451H6.25V20.5224H8.22291V14.7344H12.2046V12.8458Z" fill="white"/>
</svg>

<svg xmlns="http://www.w3.org/2000/svg" width="30" height="30" fill="none" viewBox="0 0 30 30"><path fill="#fff" d="m15.987 14.898.153-.332c.205-.52.538-.98.969-1.337a3.12 3.12 0 0 1 1.9-.592 3 3 0 0 1 1.764.54c.492.345.853.845 1.025 1.42l.087.3zm7.763 1.189a4.96 4.96 0 0 0-1.348-3.634 4.72 4.72 0 0 0-3.51-1.368 4.55 4.55 0 0 0-3.372 1.368 4.78 4.78 0 0 0-1.348 3.455 4.58 4.58 0 0 0 1.348 3.369 4.76 4.76 0 0 0 3.505 1.348 5.5 5.5 0 0 0 2.404-.51 4.5 4.5 0 0 0 1.537-1.277l-1.625-.755c-.644.582-1.487.899-2.357.888a3.04 3.04 0 0 1-1.973-.638 2.76 2.76 0 0 1-.973-1.756l-.052-.286h7.759zM12.205 12.846H8.223v-2.802h3.982v-1.92H6.25v12.398h1.973v-5.788h3.982z"/></svg>
